X: 612
T: O the Breeches Full of Stitches
B: good tune book
B: tunes
M:2/4
R: polka
Q: 1/4=100
K:Cmajor
V:1 
|:"C"c>d ec|"C"dc ec|"C"c>d ec|"F"dc A2|
 "C"c>d ec|"C"dc eg|"F"c>d cA|"G"AG G2:|
 |:"C"g>a ge|"C"dc de|"F"g2 ge|"F"dc A2| "Am"g2 ge|"Am"dc de|"G"c>d cA|"G"AG G2:|
W: Oh, my breeches full of stitches,
W: Oh, my breeches buckled on.
W: 
% abcbook-tune_id 63dce6d1ac50241b9b465a45
% abcbook-tune_composer_id 
% abcbook-link-0 https://www.youtube.com/watch?v=1iyfy--v1Mg
% abcbook-boost 0
% abcbook-difficulty 0
% abcbook-tags good tune book
% abcbook-tablature 
% abcbook-transpose 
% abcbook-tuning 
% abcbook-lastupdated 1675476581964
% abcbook-soundfonts 
% abcbook-repeats 1


